teeny/solid/flip-vertical.svg

<svg width="15" height="15" viewBox="0 0 15 15" fill="none" xmlns="http://www.w3.org/2000/svg">
<path d="M7 0V15H8V0H7Z" fill="black"/>
<path d="M4.61488 3.01342C4.84056 3.0667 5 3.26816 5 3.50005V11.5C5 11.7762 4.77614 12 4.5 12H0.500001C0.326712 12 0.165778 11.9103 0.0746751 11.7629C-0.0164282 11.6155 -0.0247102 11.4314 0.0527869 11.2764L4.05279 3.27644C4.15649 3.06903 4.38919 2.96015 4.61488 3.01342Z" fill="black"/>
<path d="M10.3851 3.01342C10.6108 2.96015 10.8435 3.06903 10.9472 3.27644L14.9472 11.2764C15.0247 11.4314 15.0164 11.6155 14.9253 11.7629C14.8342 11.9103 14.6733 12 14.5 12H10.5C10.2239 12 10 11.7762 10 11.5V3.50005C10 3.26816 10.1594 3.0667 10.3851 3.01342Z" fill="black"/>
</svg>

<svg viewBox="0 0 15 15" xmlns="http://www.w3.org/2000/svg"><g><path d="M7 0v15h1V0H7Z"/><path d="M4.61 3.01c.22.05.38.25.38.48v7.99c0 .27-.23.5-.5.5h-4c-.18 0-.34-.09-.43-.24 -.1-.15-.1-.34-.03-.49l4-8c.1-.21.33-.32.56-.27Z"/><path d="M10.38 3.01c.22-.06.45.05.56.26l4 7.99c.07.15.06.33-.03.48 -.1.14-.26.23-.43.23h-4c-.28 0-.5-.23-.5-.5v-8c0-.24.15-.44.38-.49Z"/></g></svg>
